u/stations/jre/img/051.svg

<?xml version="1.0" encoding="UTF-8" standalone="no"?>
<svg
   xml:space="preserve"
   width="70"
   height="30"
   version="1.1"
   id="svg2"
   sodipodi:docname="051.svg"
   inkscape:version="1.4 (e7c3feb1, 2024-10-09)"
   xmlns:inkscape="http://www.inkscape.org/namespaces/inkscape"
   xmlns:sodipodi="http://sodipodi.sourceforge.net/DTD/sodipodi-0.dtd"
   xmlns="http://www.w3.org/2000/svg"
   xmlns:svg="http://www.w3.org/2000/svg"><defs
     id="defs2"><clipPath
       id="b"><path
         d="M1 .625h14v18.75H1Zm0 0"
         id="path1" /></clipPath><clipPath
       id="c"><path
         d="M16 .625h18v18.75H16Zm0 0"
         id="path2-9" /></clipPath><clipPath
       id="a"><path
         d="M0 0h35v20H0z"
         id="path3" /></clipPath><clipPath
       id="e"><path
         d="M3 .762h17v26.875H3Zm0 0"
         id="path4" /></clipPath><clipPath
       id="f"><path
         d="M23 .762h17v26.875H23Zm0 0"
         id="path5" /></clipPath><clipPath
       id="d"><path
         d="M0 0h43v28H0z"
         id="path6" /></clipPath><g
       id="h"
       clip-path="url(#a)"><g
         clip-path="url(#b)"
         id="g7"><path
           d="M14.738 18.797a17 17 0 0 1-4.004.578c-5.687 0-9.656-2.926-9.656-9.047 0-6.2 3.668-9.664 9.656-9.664a11.6 11.6 0 0 1 3.965.73l-.261 3.044a7.17 7.17 0 0 0-3.817-.961c-3.629 0-5.914 2.847-5.914 6.543 0 3.695 2.207 6.468 5.988 6.468 1.387 0 3.032-.308 3.856-.77Zm0 0"
           id="path7" /></g><g
         clip-path="url(#c)"
         id="g8"><path
           d="M25.316.625c5.54 0 8.606 3.852 8.606 9.316 0 5.47-3.067 9.399-8.606 9.399-5.652 0-8.609-3.852-8.609-9.399 0-5.543 2.996-9.316 8.61-9.316m0 15.863c3.593 0 4.94-3.312 4.94-6.547 0-3.23-1.425-6.464-4.94-6.464-3.52 0-4.942 3.27-4.942 6.464 0 3.274 1.348 6.547 4.941 6.547"
           id="path8" /></g></g><g
       id="i"
       clip-path="url(#d)"><g
         clip-path="url(#e)"
         id="g9"><path
           d="M3.45 22.348c1.784.71 3.722 1.195 5.769 1.195 2.16 0 5.469-1.047 5.469-3.684 0-3.054-2.418-4.062-5.731-4.062H6.426v-4.09h2.383c3.5 0 5.773-1.16 5.773-3.43 0-2.605-2.125-3.422-4.473-3.422-2.043 0-4.015.485-5.84 1.375l-.296-4.167C6.05 1.243 8.547.762 11.23.762c3.204 0 8.56 1.113 8.56 6.66 0 3.535-2.196 5.21-4.837 6.223v.07c3.313.445 4.95 3.012 4.95 6.176 0 6.18-5.622 7.746-9.938 7.746-2.274 0-4.88-.297-6.817-.856z"
           id="path9" /></g><g
         clip-path="url(#f)"
         id="g10"><path
           d="M23.395 22.348c1.789.71 3.726 1.195 5.773 1.195 2.16 0 5.473-1.047 5.473-3.684 0-3.054-2.422-4.062-5.73-4.062h-2.532v-4.09h2.379c3.5 0 5.773-1.16 5.773-3.43 0-2.605-2.125-3.422-4.468-3.422-2.047 0-4.02.485-5.844 1.375l-.301-4.167C26.004 1.243 28.5.762 31.176.762c3.203 0 8.562 1.113 8.562 6.66 0 3.535-2.195 5.21-4.84 6.223v.07c3.317.445 4.954 3.012 4.954 6.176 0 6.18-5.618 7.746-9.938 7.746-2.27 0-4.875-.297-6.816-.856z"
           id="path10" /></g></g><clipPath
       id="b-0"><path
         d="m1 0.625h14v18.8h-14z"
         id="path1-9" /></clipPath><clipPath
       id="c-5"><path
         d="m16 0.625h18v18.8h-18z"
         id="path2-7" /></clipPath><clipPath
       id="a-9"><path
         d="M0 0h35v20H0z"
         id="path3-3" /></clipPath><clipPath
       id="e-3"><path
         d="m3 0.762h17v26.9h-17z"
         id="path4-3" /></clipPath><clipPath
       id="f-2"><path
         d="m23 0.762h17v26.9h-17z"
         id="path5-4" /></clipPath><clipPath
       id="d-3"><path
         d="M0 0h43v28H0z"
         id="path6-3" /></clipPath><clipPath
       id="g"><path
         d="M0 0h75v75H0z"
         id="path7-5" /></clipPath><g
       id="h-1"
       clip-path="url(#a-9)" /><g
       id="i-0"
       clip-path="url(#d-3)" /></defs><sodipodi:namedview
     id="namedview2"
     pagecolor="#ffffff"
     bordercolor="#000000"
     borderopacity="0.25"
     inkscape:showpageshadow="2"
     inkscape:pageopacity="0.0"
     inkscape:pagecheckerboard="0"
     inkscape:deskcolor="#d1d1d1"
     inkscape:zoom="1.885277"
     inkscape:cx="-24.93003"
     inkscape:cy="20.95183"
     inkscape:window-width="1432"
     inkscape:window-height="398"
     inkscape:window-x="0"
     inkscape:window-y="25"
     inkscape:window-maximized="0"
     inkscape:current-layer="svg2" /><path
     fill="#de0615"
     d="M 30,0 H 40 V 30 H 30 Z"
     style="stroke-width:1.41421;paint-order:fill markers stroke;fill:#de0615;fill-opacity:1"
     id="path2" /><path
     d="M 30,30 V 24.97 C 30,19.55 27.66,17.53 25.12999,16.27 22.59999,15.01 19.99999,14.97 19.99999,14.97 L 0,14.97 0,9.970003 19.99999,9.970003 C 19.99999,9.970003 23.64999,9.935003 27.37,11.8 31.09,13.66 35,17.89 35,25 V 30 Z"
     fill="#00a7e3"
     style="fill:#ff9844;fill-opacity:1;paint-order:fill markers stroke"
     id="path8-9"
     sodipodi:nodetypes="csscccccscc" /></svg>

<svg xmlns="http://www.w3.org/2000/svg" xml:space="preserve" width="70" height="30"><path fill="#de0615" d="M30 0h10v30H30Z" style="stroke-width:1.41421;paint-order:fill markers stroke;fill:#de0615;fill-opacity:1"/><path fill="#00a7e3" d="M30 30v-5.03c0-5.42-2.34-7.44-4.87-8.7S20 14.97 20 14.97H0v-5h20s3.65-.035 7.37 1.83C31.09 13.66 35 17.89 35 25v5Z" style="fill:#ff9844;fill-opacity:1;paint-order:fill markers stroke"/></svg>
